X:412
T:
S:Efter kusken Joh. Gullander, Klintehamn.
R:hamburgska
O:Gotland, Klintehamn
M:3/4
L:1/8
K:G
b>b bg d2|b>bbg d2|b>b c'2 b2|aa d4|
a>aaf d2|a>aaf d2|a>a b2 a2|g>b G2 z2|
b>bbg d2|b>bbg d2|b>b c'2 b2|a>c' e4|
a>a b2 a2|g>b d4| fedcBA|G2 g2 z2::
b2 a2 g2|fa A2 A2|f2 e2 d2|Bd G2 G2|
GABcdB|c>e F2 F2|FGABcd|e>d G2 G2|
b2 a2 g2|fa A2 A2|f2 e2 d2|Bd G2 G2|
GABc d2|ABcd e2|fedcBA|G2 g2 z2:|

